X: 12
T: Handsome Young Maidens, The
C: Charlie Lennon
Z: JACKB
S: https://thesession.org/tunes/145#setting53187
R: jig
M: 6/8
L: 1/8
K: Dmaj
|:dAG FGE|DFA dB/c/d|eAA GAA|EAA edc
dAG FGE|DFA dB/c/d|eAA GAA|1 edc d3:|2 edc dAG||
|:F2 A FAF|G2 B BAG|FGA dAF|EBB BAG|
F2 A dAF|G2 B BAG|AFA def|edc d3:|

